dist/svg/wipe-close.svg

<svg width="16" height="16" viewBox="0 0 16 16" fill="rgb(34, 34, 34)" xmlns="http://www.w3.org/2000/svg"><title>wipe-close</title><path d="M9.443 12L6.587 14.856C1.685 13.876 0 8.00002 0 8.00002C2.292 7.80702 4.378 7.06202 6.166 5.89902L6.114 5.93002C6.651 6.46402 7.309 7.07602 8.047 7.68102L6.585 9.14302L9.443 12ZM9.143 6.58602L12 9.44302L12.868 8.57502C12.892 8.44202 12.917 8.31002 12.933 8.17002C12.94 8.10602 12.944 8.03202 12.944 7.95702C12.944 7.30302 12.63 6.72202 12.144 6.35802L12.139 6.35402L11.891 6.16802L15.999 2.06002L14.938 0.999023L10.678 5.25902L10.18 4.88602C9.85 4.63702 9.432 4.48702 8.98 4.48702C8.554 4.48702 8.159 4.62002 7.835 4.84602L7.842 4.84202C7.595 5.01102 7.308 5.19802 7.002 5.39302C7.505 5.88302 8.104 6.43002 8.762 6.96602L9.143 6.58602ZM14.857 8.00002L12 10.857L9.143 8.00002L8 9.14302L10.857 12L8 14.857L9.143 16L12 13.143L14.857 16L16 14.857L13.143 12L16 9.14302L14.857 8.00002Z" fill="rgb(34, 34, 34)" fill-opacity="1.00"/></svg>

<!-- Generated by Trend Micro Style Portal -->
<svg version="1.1" xmlns="http://www.w3.org/2000/svg" width="16" height="16" viewBox="0 0 16 16">
  <title>wipe-close</title>
  <path fill="rgb(34,34,34)" d="M9.443 12l-2.856 2.856c-4.902-0.98-6.587-6.856-6.587-6.856 2.292-0.193 4.378-0.938 6.166-2.101l-0.052 0.031c0.537 0.534 1.195 1.146 1.933 1.751l-1.462 1.462zM9.143 6.586l2.857 2.857 0.868-0.868c0.024-0.133 0.049-0.265 0.065-0.405 0.007-0.064 0.011-0.138 0.011-0.213 0-0.654-0.314-1.235-0.8-1.599l-0.005-0.004-0.248-0.186 4.108-4.108-1.061-1.061-4.26 4.26-0.498-0.373c-0.33-0.249-0.748-0.399-1.2-0.399-0.426 0-0.821 0.133-1.145 0.359l0.007-0.004c-0.247 0.169-0.534 0.356-0.84 0.551 0.503 0.49 1.102 1.037 1.76 1.573zM14.857 8l-2.857 2.857-2.857-2.857-1.143 1.143 2.857 2.857-2.857 2.857 1.143 1.143 2.857-2.857 2.857 2.857 1.143-1.143-2.857-2.857 2.857-2.857z"></path>
</svg>
